src/icons_unused/hds/ui/calendar-plus.svg

<svg viewBox="0 0 24 24" role="img" xmlns="http://www.w3.org/2000/svg"><g fill="none" fill-rule="evenodd"><path d="M0 0h24v24H0z"/><path d="M20 14v3h3v2h-3v3h-2v-3h-3v-2h3v-3h2zM17 2a1 1 0 011 1v1h4v8h-2v-1H4v8h9v2H2V4h4V3a1 1 0 112 0v1h8V3a1 1 0 011-1zm3 4H4v3h16V6z" fill="currentColor"/></g></svg>

<svg xmlns="http://www.w3.org/2000/svg" width="24" height="24" viewBox="0 0 24 24">
  <g fill="none" fill-rule="evenodd">
    <rect width="24" height="24"/>
    <path fill="currentColor" d="M20,14 L20,17 L23,17 L23,19 L20,19 L20,22 L18,22 L18,19 L15,19 L15,17 L18,17 L18,14 L20,14 Z M17,2 C17.5522847,2 18,2.44771525 18,3 L18,4 L22,4 L22,12 L20,12 L20,11 L4,11 L4,19 L13,19 L13,21 L2,21 L2,4 L6,4 L6,3 C6,2.44771525 6.44771525,2 7,2 C7.55228475,2 8,2.44771525 8,3 L8,4 L16,4 L16,3 C16,2.44771525 16.4477153,2 17,2 Z M20,6 L4,6 L4,9 L20,9 L20,6 Z"/>
  </g>
</svg>
